-----BEGIN PGP MESSAGE-----

hQIMA+WtGaqlT108AQ//fWcYhpsdni0P2At674/uSoplUU8ocRCElz/lVvcrwA36
nJj5zneR9bbjjuQzAgSEuvYUJl1CEz+nIEF22ysprkvzOCQXpXAKyNtOkYTDlyaz
HbkjVXyUNgjvSJGogzmupf4WYTvZiTjXBAp4eU6Y5qdN/j99qqfMEsfxhx+HMfs4
/NPVS86dHl8BRTdS4/8KwJ6M+GLthiSPhIBdTPcBz0gKBtt+VR/WV2PTAOOq3Zxs
DTJZhGGp66Yv3FAj7J/8aOpH59M81NOtLDrPfBxt4bz7Vcu2KXJsWtSg9NRU1mtW
6lbsq+3b7jVFsFQ47hbLqFxodtdUZontr4s4qzrNVU8xBfQFMZo0zrIGUCf7lKcn
SY9lfT9EQWsnD8IUn1dxA8sMmwIBA2EGA3qFU1nV8klD5JL0cM259gTrtOaQ5t80
srMAPlYIFqtKX3ZiCWJ5ZmC0axbYR5Ayr4hXzD9YRYe+u9WnmlBuiTeXpMpIUNyl
ejcQqNMMt3SWUxufDD9Z9t7bCLHUhzFRJLgtvAjGYiLAoGxlcpflaMIGn1zcEcPY
yjVQFOBJ8MXuIA6pN52N9k+Jg9PYCfuSuxY+qWuB+UOfZPpnzSRWJiza2+QTfq7c
3WsPQM790R3IDXjtC16hTfRsh6V3v7dMTrpux0t72mVUetXVzwSMVxxIE56ia1bU
6QEJAhAJif0RzTxDeqGLvFGvkMYa8+noqB+odVFX8atDfbt4gyK+wfzcRZbUAjPc
R00FvOm/WIneMXAH+0+hgAOnouwesnp9vU1uYehBSTxL6AwjCuaAYU8BaBv/KjEO
pmRaUtU1lRALTN/9Q044JLA8AfHhc+wlxsKpxoaZWTS9kWFXvsZwe0z8T4SazGgD
JbHi72PkAC6AAE+RIzgNC5xP0qlFLYIIcFSbhpxzI9kdVBhXLRbUNBylWXYrqO9n
9tqEn1Z037yxAOHzAczsQNxtjGDMq9QkzmTYD3GaxDhTNe/3woWE+j9RnU3QpbeO
1sjDPOP869CQUx87jJf/V6UXLzrl6eNsoEcw6pQiKhluFc3g19AIIwaIMEbxpurf
nvuI7gbZjwP6EM7Y/s/bTiB77n8yVQy/C8q+dHwFBrT+eKYfAhfQD0n5ftWw8zke
YCjxXsdDtCykVfqV7DZn7DVUNimTeWaxM7GqnJU6ax4D7G3pTjCng4uiHZ7my7gy
K4NR02p6DOguhkK+VCLCysl7s/Qiu2RY5Ii5U+C1vgdrCtuhnLjCCxK4YzqbDJ7W
wxaJNJBygwyCTih+ZFLCYHX9rCVh4VWmoxesREErws39lIQZB3bWTGffGyIBppQ3
P1p/5RPLAvzzWrdyfXIn8uvRo5i5imE0yE8z6pa+3W6vZdMrf7yheMYsZCe81vjG
HHfQZJ+fx5iqteEeX4IM/nx26I0WUIa7LubHN/hfRO1YaXhtk9Ss+Dfqix4xTTBQ
kgFiOgaV/nP134FVTPt7919I7M8xIuJPh/qtFZ9gapKiXlMYioCa
=XOY7
-----END PGP MESSAGE-----
