-----BEGIN PGP MESSAGE-----

hQIMA+WtGaqlT108ARAAh/jQTNJ/BcdVzGJxj6P6S3PSoDukSa9vYTqTh5MuP2Ux
uvHP+enhDl1KjBD9JC4MkylDRtV4DP2xUDXb7tK4riyJ/Yk96sp0Ay5ETYyhbJNi
+2BmNJ5FrlEXpMRixdJ9uV/FQe6RbhrnXcJNezh6vBl65jtJuAmbuIpTnAy/kKWP
zojS+50RXl8T3p+XKZAZJ7lJBbal3Z2wjJHKlUYxRo+Lztu2CkXRjFrUPzhF9ccW
f+3rGj2/5QZlneFbFPIS1DYCYQfoYxn8pr+0P/INrQ6Zqc7ZBn1MvVnMZGZgbZxB
Nqfn/voetDm5yW2X8pZ5unO99B74U0AMzWHP0K/PoB7K3m7sJeI8R+tceYU8vN/J
8FL1DR+qn2kU0pmQUx8pmNbSlswFYNJzNmf50AurYfg/0QLZmHgeRjGwIu0QUEBs
Jpt+flEARTu4HiT8iPjEajEm9EK5QH1/t0fcIsbyGtz91hvBwaIGuvvELeX72iV7
KwW5OtBjFVDaSVWWI1Lj5lXOKR/P/zpP0ij3kNOshTcyAphNTy6/13IIVq4wi8iP
X1srpUcbHvH/p0x+Y/4sdKMSQmvNZvQ/DRDMgvUINNU65HVuElfZe+f4w9BwB66H
QT9a8R6R8NDk8NiRLckA3uF2iMpuvGDVFWPnM4kdyUOQVfzy0qwHEmRmmANr+VPU
wDIBCQIQ84cyprMREJl2zEvUK1YNni6c1RPC9jZy84TxARB6GvAqIURkesgO2abT
Ud8TwwRzxmBRzP4ubHdxXRzPZQhfJGOmAC9vidKk4GlAHBHEtm0Xf8HA9XzzTuly
29nY7Pow31gYmI6hIC0fro7k+K4p2GaMexawXCkU5KOeIW3PqcA2NlT/jHrCjEEc
dj6DYEHPSeKjtsur835Wpd6RWEoyrBSUJuJjLd7j9oR+/GxIsSep7/0So1Gfe+qb
220Xs/40jdk+PalFeQedzXM3KpyCdQzr+b4kngtTl0lSPiuFiAuxJ8O+Hg9oeTz0
5ek6sQ==
=snkx
-----END PGP MESSAGE-----
